X:1
T:Lamp-Lighter's -- Hornpipe
Z:Bob Puckette <bpuckette:msn.com> 2003-3-10
R:hornpipe
B:Cole's 1000 Fiddle Tunes
M:2/4
L:1/16
K:A
vcd|ecec eagf|ecec eagf|ecec fedc|d2B2 .B2(cd)|
ecec eagf|ecec eagf|efd"4"e cABG|E2A2A2:|
|:vcd|edcd .e2(fe)|dcBc .d2(ed)|cAcA dcBA|GABc .B2(cd)|
edcd .e2(fe)|dcBc .d2(ed)|caAc BdGB|A2A2A2:|
